X:1
T:Title
L:1/8
M:6/8
K:Eb
V:1 treble nm="Grand Piano"
V:1
 z3[Q:1/4=140] C2 C | E2 E F2 F | G6- | G3 c2 d | e2 d c2 B | G6- | G3 F2 G | A2 G F2 E | D3 D2 D | %9
 E2 E F2 F | G6- | G3 C2 C | E2 E F2 F | G6- | G3 c2 d | e2 d c2 B | G6- | G3 F2 G | A2 G F2 E | %19
 D2 F E2 D | C6- | C3 F2 G | A2 A A2 A | A3 E2 F | G2 G G2 G | G2 D D2 E | F3 F2 F | F2 G E2 D | %28
 E3 F3 | G6- | G3 F2 G | A2 A A2 A | A3 E2 F | G2 G G2 G | G3 D2 E | F2 F F2 F | F2 G E2 D | C6- | %38
 C3 z3 |] %39

